build/img/bad.svg

<svg width="48" height="48" viewBox="0 0 48 48" fill="none" xmlns="http://www.w3.org/2000/svg">
<rect width="48" height="48" rx="24" fill="#F25248"/>
<path fill-rule="evenodd" clip-rule="evenodd" d="M18.7073 17.2928L18.0002 16.5857L16.5859 17.9999L17.293 18.707L22.5859 23.9999L17.293 29.2928L16.5859 29.9999L18.0002 31.4141L18.7073 30.707L24.0002 25.4141L29.293 30.707L30.0002 31.4141L31.4144 29.9999L30.7073 29.2928L25.4144 23.9999L30.7073 18.707L31.4144 17.9999L30.0002 16.5857L29.293 17.2928L24.0002 22.5857L18.7073 17.2928Z" fill="white"/>
</svg>

<svg width="48" height="48" viewBox="0 0 48 48" fill="none" xmlns="http://www.w3.org/2000/svg"><rect width="48" height="48" rx="24" fill="#F25248"/><path fill-rule="evenodd" clip-rule="evenodd" d="M18.707 17.293L18 16.586 16.586 18l.707.707L22.586 24l-5.293 5.293-.707.707L18 31.414l.707-.707L24 25.414l5.293 5.293.707.707L31.414 30l-.707-.707L25.414 24l5.293-5.293.707-.707L30 16.586l-.707.707L24 22.586l-5.293-5.293z" fill="#fff"/></svg>
